polaris-icons/icons/newicons/CreditCardCancelMajor.svg

<svg width="20" height="20" viewBox="0 0 20 20" fill="none" xmlns="http://www.w3.org/2000/svg">
<path fill-rule="evenodd" clip-rule="evenodd" d="M2 7.75C2 5.67893 3.67893 4 5.75 4H14.25C16.3211 4 18 5.67893 18 7.75V9.25C18 9.66421 17.6642 10 17.25 10C16.8358 10 16.5 9.66421 16.5 9.25H3.5V12.25C3.5 13.4926 4.50736 14.5 5.75 14.5H11.25C11.6642 14.5 12 14.8358 12 15.25C12 15.6642 11.6642 16 11.25 16H5.75C3.67893 16 2 14.3211 2 12.25V7.75ZM14.25 5.5C15.3208 5.5 16.2169 6.24801 16.4442 7.25H3.55575C3.78312 6.24801 4.67921 5.5 5.75 5.5H14.25Z" fill="black"/>
<path d="M5.75 11.5C5.33579 11.5 5 11.8358 5 12.25C5 12.6642 5.33579 13 5.75 13H9.75C10.1642 13 10.5 12.6642 10.5 12.25C10.5 11.8358 10.1642 11.5 9.75 11.5H5.75Z" fill="black"/>
<path d="M18.5303 11.4697C18.8232 11.7626 18.8232 12.2374 18.5303 12.5303L17.0607 14L18.5303 15.4697C18.8232 15.7626 18.8232 16.2374 18.5303 16.5303C18.2374 16.8232 17.7626 16.8232 17.4697 16.5303L16 15.0607L14.5303 16.5303C14.2374 16.8232 13.7626 16.8232 13.4697 16.5303C13.1768 16.2374 13.1768 15.7626 13.4697 15.4697L14.9393 14L13.4697 12.5303C13.1768 12.2374 13.1768 11.7626 13.4697 11.4697C13.7626 11.1768 14.2374 11.1768 14.5303 11.4697L16 12.9393L17.4697 11.4697C17.7626 11.1768 18.2374 11.1768 18.5303 11.4697Z" fill="black"/>
</svg>

<svg viewBox="0 0 20 20" fill="none" xmlns="http://www.w3.org/2000/svg"><path fill-rule="evenodd" clip-rule="evenodd" d="M2 7.75a3.75 3.75 0 0 1 3.75-3.75h8.5a3.75 3.75 0 0 1 3.75 3.75v1.5a.75.75 0 0 1-1.5 0h-13v3a2.25 2.25 0 0 0 2.25 2.25h5.5a.75.75 0 0 1 0 1.5h-5.5a3.75 3.75 0 0 1-3.75-3.75v-4.5Zm12.25-2.25a2.25 2.25 0 0 1 2.194 1.75h-12.888a2.25 2.25 0 0 1 2.194-1.75h8.5Z" fill="#000"/><path d="M5.75 11.5a.75.75 0 0 0 0 1.5h4a.75.75 0 0 0 0-1.5h-4Z" fill="#000"/><path d="M18.53 11.47a.75.75 0 0 1 0 1.06l-1.47 1.47 1.47 1.47a.75.75 0 1 1-1.06 1.06l-1.47-1.47-1.47 1.47a.75.75 0 1 1-1.06-1.06l1.47-1.47-1.47-1.47a.75.75 0 1 1 1.06-1.06l1.47 1.47 1.47-1.47a.75.75 0 0 1 1.06 0Z" fill="#000"/></svg>
